Sources/FrostedUI/Resources/Icons.xcassets/sunSize20.imageset/sun-size-20.svg

<svg
  width="20"
  height="20"
  viewBox="0 0 20 20"
  fill="none"
  xmlns="http://www.w3.org/2000/svg"
  data-fui-icon="true"
>
  <path
    d="M9.99853 2.74236V1.47298M4.86657 15.1322L3.96898 16.0298M9.99853 18.5273V17.2578M16.0279 3.97057L15.1302 4.86816M17.2559 10.0001H18.5253M15.1302 15.1322L16.0279 16.0298M1.47137 10.0001H2.74076M3.96892 3.97052L4.8665 4.86811M13.092 6.90651C14.8005 8.61508 14.8005 11.3852 13.092 13.0937C11.3834 14.8023 8.61336 14.8023 6.90481 13.0937C5.19626 11.3852 5.19626 8.61508 6.90481 6.90651C8.61336 5.19797 11.3834 5.19797 13.092 6.90651Z"
    stroke="currentColor"
    stroke-width="1.5"
    stroke-linecap="round"
    stroke-linejoin="round"
  />
</svg>

<svg xmlns="http://www.w3.org/2000/svg" width="20" height="20" fill="none" data-fui-icon="true" viewBox="0 0 20 20"><path stroke="currentColor" stroke-linecap="round" stroke-linejoin="round" stroke-width="1.5" d="M9.999 2.742V1.473m-5.132 13.66-.898.897m6.03 2.497v-1.27m6.029-13.286-.898.897M17.256 10h1.27m-3.396 5.132.898.898M1.47 10h1.27m1.228-6.03.898.898m8.225 2.039a4.375 4.375 0 1 1-6.187 6.187 4.375 4.375 0 0 1 6.187-6.187"/></svg>
